X: 3
T: The Hills Of Kaitoke
R: reel
M: 4/4
L: 1/8
K: Dmaj
Ade|:"D"e{g//}f2f- fg .f.A|"Em"AB3/2z/B- BAef|"G"gfed "C"ABdf|"A"de2e- eAde|
"D"ef2f- fgfA|"G"AB2B- BAFD|"Em"BDEF "C"GABd|1 "D"edfd .| "A"eAde:|2 "D"edfd "A"edef||
|:"C"gf {A//B/C}A2 - Agfe|"D"fedA - Af(ed|"A"ed(Ae) "Em"dABd|"Asus4"ed)fd "A"edef|
W: Baratin additionnel
"C"gf[A2C]- Agfe||[K:GMaj]"D"fedA- AGFD|"Em"B(DEF "C" ~G2)(3AB>d|1 "D"ed<fd "A"edef:|2 "D"ed>fd "A"e||


